; generated by Slic3r 0.9.9 on 2014-09-23 at 13:39:55

; layer_height = 0.3
; perimeters = 3
; top_solid_layers = 3
; bottom_solid_layers = 3
; fill_density = 0.1
; perimeter_speed = 30
; infill_speed = 60
; travel_speed = 130
; nozzle_diameter = 0.4
; filament_diameter = 1.80
; extrusion_multiplier = 0.9
; perimeters extrusion width = 0.42mm
; infill extrusion width = 0.21mm
; solid infill extrusion width = 0.42mm
; top infill extrusion width = 0.42mm
; first layer extrusion width = 0.53mm

G21 ; set units to millimeters
M107
M104 S200 ; set temperature
G28 X0.00 Y0.00 ; home X&Y axes
G29 ;  Home Z Bed
G1 Z5 F5000 ; lift nozzle
M109 S200 ; wait for temperature to be reached
G90 ; use absolute coordinates
G92 E0
M82 ; use absolute distances for extrusion
G1 F1800.000 E-1.00000
G92 E0
G1 Z0.350 F7800.000
G1 X13.370 Y58.200
G1 F1800.000 E1.00000
G1 X14.180 Y58.050 F540.000 E1.05080
G1 X15.000 Y58.000 E1.10146
G1 X135.000 Y58.000 E8.50158
G1 X135.820 Y58.050 E8.55224
G1 X136.360 Y58.140 E8.58600
G1 X136.900 Y58.270 E8.62025
G1 X137.680 Y58.540 E8.67115
G1 X138.180 Y58.770 E8.70509
G1 X138.660 Y59.030 E8.73876
G1 X139.110 Y59.340 E8.77245
G1 X139.540 Y59.680 E8.80626
G1 X139.750 Y59.860 E8.82332
G1 X140.140 Y60.250 E8.85733
G1 X140.490 Y60.670 E8.89104
G1 X140.820 Y61.110 E8.92496
G1 X140.970 Y61.340 E8.94189
G1 X141.350 Y62.070 E8.99265
G1 X141.650 Y62.840 E9.04361
G1 X141.800 Y63.370 E9.07757
G1 X141.910 Y63.910 E9.11156
G1 X141.950 Y64.180 E9.12839
G1 X142.000 Y65.000 E9.17905
G1 X142.000 Y75.000 E9.79573
G1 X141.940 Y75.870 E9.84951
G1 X141.850 Y76.440 E9.88509
G1 X141.710 Y77.000 E9.92069
G1 X141.520 Y77.540 E9.95599
G1 X141.290 Y78.070 E9.99162
G1 X141.010 Y78.580 E10.02750
G1 X140.690 Y79.070 E10.06359
G1 X140.340 Y79.520 E10.09874
G1 X139.950 Y79.950 E10.13454
G1 X129.950 Y89.950 E11.00666
G1 X129.520 Y90.340 E11.04245
G1 X128.830 Y90.860 E11.09574
G1 X128.330 Y91.150 E11.13138
G1 X127.810 Y91.410 E11.16723
G1 X127.000 Y91.710 E11.22050
G1 X126.440 Y91.850 E11.25610
G1 X125.870 Y91.940 E11.29168
G1 X125.000 Y92.000 E11.34546
G1 X25.000 Y92.000 E17.51222
G1 X24.130 Y91.940 E17.56600
G1 X23.560 Y91.850 E17.60159
G1 X23.000 Y91.710 E17.63719
G1 X22.460 Y91.520 E17.67249
G1 X21.930 Y91.290 E17.70812
G1 X21.170 Y90.860 E17.76197
G1 X20.700 Y90.520 E17.79774
G1 X20.260 Y90.150 E17.83319
G1 X9.850 Y79.740 E18.74106
G1 X9.480 Y79.300 E18.77651
G1 X9.140 Y78.830 E18.81228
G1 X8.990 Y78.580 E18.83026
G1 X8.710 Y78.070 E18.86614
G1 X8.590 Y77.810 E18.88380
G1 X8.290 Y77.000 E18.93707
G1 X8.150 Y76.440 E18.97266
G1 X8.100 Y76.150 E18.99081
G1 X8.030 Y75.580 E19.02623
G1 X8.000 Y75.000 E19.06204
G1 X8.000 Y65.000 E19.67872
G1 X8.050 Y64.180 E19.72938
G1 X8.140 Y63.640 E19.76314
G1 X8.270 Y63.100 E19.79739
G1 X8.540 Y62.320 E19.84829
G1 X8.770 Y61.820 E19.88223
G1 X9.030 Y61.340 E19.91590
G1 X9.510 Y60.670 E19.96672
G1 X10.050 Y60.050 E20.01742
G1 X10.670 Y59.510 E20.06813
G1 X11.340 Y59.030 E20.11895
G1 X11.820 Y58.770 E20.15262
G1 X12.320 Y58.540 E20.18656
G1 X12.840 Y58.350 E20.22070
G1 X13.298 Y58.219 E20.25006
G1 X13.440 Y58.690 F7800.000
G1 X13.700 Y58.630 F540.000 E20.26651
G1 X14.220 Y58.550 E20.29896
G1 X14.480 Y58.520 E20.31510
G1 X15.000 Y58.500 E20.34719
G1 X135.000 Y58.500 E27.74731
G1 X135.520 Y58.520 E27.77940
G1 X135.780 Y58.550 E27.79554
G1 X136.300 Y58.630 E27.82798
G1 X136.560 Y58.690 E27.84444
G1 X137.060 Y58.840 E27.87663
G1 X137.550 Y59.020 E27.90882
G1 X138.250 Y59.370 E27.95708
G1 X138.690 Y59.650 E27.98924
G1 X139.110 Y59.970 E28.02181
G1 X139.690 Y60.500 E28.07026
G1 X140.030 Y60.890 E28.10216
G1 X140.350 Y61.310 E28.13472
G1 X140.630 Y61.750 E28.16689
G1 X140.870 Y62.210 E28.19888
G1 X141.080 Y62.700 E28.23176
G1 X141.160 Y62.940 E28.24736
G1 X141.370 Y63.700 E28.29598
G1 X141.480 Y64.480 E28.34456
G1 X141.500 Y65.000 E28.37665
G1 X141.500 Y75.000 E28.99333
G1 X141.480 Y75.540 E29.02665
G1 X141.450 Y75.800 E29.04279
G1 X141.360 Y76.330 E29.07594
G1 X141.230 Y76.850 E29.10900
G1 X141.150 Y77.110 E29.12577
G1 X140.840 Y77.850 E29.17525
G1 X140.580 Y78.330 E29.20891
G1 X140.290 Y78.780 E29.24193
G1 X139.780 Y79.400 E29.29143
G1 X129.400 Y89.780 E30.19669
G1 X129.200 Y89.960 E30.21328
G1 X128.780 Y90.290 E30.24622
G1 X128.330 Y90.580 E30.27923
G1 X127.610 Y90.950 E30.32915
G1 X127.110 Y91.150 E30.36236
G1 X126.600 Y91.300 E30.39514
G1 X125.800 Y91.450 E30.44534
G1 X125.540 Y91.480 E30.46148
G1 X125.000 Y91.500 E30.49480
G1 X25.000 Y91.500 E36.66156
G1 X24.460 Y91.480 E36.69489
G1 X24.200 Y91.450 E36.71103
G1 X23.670 Y91.360 E36.74418
G1 X23.150 Y91.230 E36.77723
G1 X22.890 Y91.150 E36.79401
G1 X22.150 Y90.840 E36.84349
G1 X21.670 Y90.580 E36.87715
G1 X21.220 Y90.290 E36.91016
G1 X20.600 Y89.780 E36.95967
G1 X10.220 Y79.400 E37.86492
G1 X9.710 Y78.780 E37.91443
G1 X9.420 Y78.330 E37.94744
G1 X9.160 Y77.850 E37.98111
G1 X8.850 Y77.110 E38.03058
G1 X8.700 Y76.600 E38.06337
G1 X8.590 Y76.070 E38.09675
G1 X8.520 Y75.540 E38.12972
G1 X8.500 Y75.000 E38.16304
G1 X8.500 Y65.000 E38.77972
G1 X8.520 Y64.480 E38.81181
G1 X8.550 Y64.220 E38.82795
G1 X8.630 Y63.700 E38.86039
G1 X8.690 Y63.440 E38.87685
G1 X8.840 Y62.940 E38.90904
G1 X9.020 Y62.450 E38.94123
G1 X9.370 Y61.750 E38.98949
G1 X9.650 Y61.310 E39.02165
G1 X9.970 Y60.890 E39.05421
G1 X10.310 Y60.500 E39.08612
G1 X10.890 Y59.970 E39.13457
G1 X11.310 Y59.650 E39.16713
G1 X11.750 Y59.370 E39.19930
G1 X12.450 Y59.020 E39.24756
G1 X12.700 Y58.920 E39.26416
G1 X13.368 Y58.710 E39.30734
G1 F1800.000 E38.30734
G92 E0
G1 X123.755 Y83.755 F7800.000
G1 F1800.000 E1.00000
G1 X26.245 Y83.755 F540.000 E7.01316
G1 X26.245 Y73.755 E7.62983
G1 X16.245 Y73.755 E8.24651
G1 X16.245 Y66.245 E8.70958
G1 X72.755 Y66.245 E12.19437
G1 X72.755 Y68.245 E12.31770
G1 X77.245 Y68.245 E12.59464
G1 X77.245 Y66.245 E12.71798
G1 X133.755 Y66.245 E16.20276
G1 X133.755 Y73.755 E16.66583
G1 X123.755 Y73.755 E17.28251
G1 X123.755 Y83.680 E17.89458
G1 X124.253 Y84.253 F7800.000
G1 X25.747 Y84.253 F540.000 E23.96918
G1 X25.747 Y74.253 E24.58586
G1 X15.747 Y74.253 E25.20253
G1 X15.747 Y65.747 E25.72705
G1 X73.253 Y65.747 E29.27327
G1 X73.253 Y67.747 E29.39661
G1 X76.747 Y67.747 E29.61211
G1 X76.747 Y65.747 E29.73544
G1 X134.253 Y65.747 E33.28167
G1 X134.253 Y74.253 E33.80618
G1 X124.253 Y74.253 E34.42286
G1 X124.253 Y84.178 E35.03493
G1 X124.751 Y84.751 F7800.000
G1 X25.249 Y84.751 F378.000 E41.17097
G1 X25.249 Y74.751 E41.78765
G1 X15.249 Y74.751 E42.40432
G1 X15.249 Y65.249 E42.99028
G1 X73.751 Y65.249 E46.59795
G1 X73.751 Y67.249 E46.72128
G1 X76.249 Y67.249 E46.87534
G1 X76.249 Y65.249 E46.99868
G1 X134.751 Y65.249 E50.60635
G1 X134.751 Y74.751 E51.19230
G1 X124.751 Y74.751 E51.80898
G1 X124.751 Y84.676 E52.42105
G1 X124.319 Y84.502 F7800.000
G1 F1800.000 E51.42105
G92 E0
G1 X132.687 Y66.606 F7800.000
G1 F1800.000 E1.00000
G1 X133.394 Y67.313 F1080.000 E1.06172
G1 X133.394 Y68.019 E1.10537
G1 X131.981 Y66.606 E1.22882
G1 X131.275 Y66.606 E1.27246
G1 X133.394 Y68.725 E1.45764
G1 X133.394 Y69.431 E1.50128
G1 X130.569 Y66.606 E1.74818
G1 X129.863 Y66.606 E1.79182
G1 X133.394 Y70.137 E2.10044
G1 X133.394 Y70.843 E2.14409
G1 X129.157 Y66.606 E2.51443
G1 X128.451 Y66.606 E2.55808
G1 X133.394 Y71.549 E2.99014
G1 X133.394 Y72.256 E3.03379
G1 X127.744 Y66.606 E3.52758
G1 X127.038 Y66.606 E3.57123
G1 X133.394 Y72.962 E4.12674
G1 X133.119 Y73.394 E4.15836
G1 X126.332 Y66.606 E4.75162
G1 X125.626 Y66.606 E4.79526
G1 X132.413 Y73.394 E5.38852
G1 X131.707 Y73.394 E5.43216
G1 X124.920 Y66.606 E6.02542
G1 X124.214 Y66.606 E6.06907
G1 X131.001 Y73.394 E6.66232
G1 X130.295 Y73.394 E6.70597
G1 X123.508 Y66.606 E7.29923
G1 X122.801 Y66.606 E7.34287
G1 X129.588 Y73.394 E7.93613
G1 X128.882 Y73.394 E7.97977
G1 X122.095 Y66.606 E8.57303
G1 X121.389 Y66.606 E8.61667
G1 X128.176 Y73.394 E9.20993
G1 X127.470 Y73.394 E9.25358
G1 X120.683 Y66.606 E9.84683
G1 X119.977 Y66.606 E9.89048
G1 X126.764 Y73.394 E10.48374
G1 X126.058 Y73.394 E10.52738
G1 X119.271 Y66.606 E11.12064
G1 X118.565 Y66.606 E11.16428
G1 X125.352 Y73.394 E11.75754
G1 X124.646 Y73.394 E11.80119
G1 X117.858 Y66.606 E12.39444
G1 X117.152 Y66.606 E12.43809
G1 X123.939 Y73.394 E13.03134
G1 X123.394 Y73.554 E13.06651
G1 X116.446 Y66.606 E13.67377
G1 X115.740 Y66.606 E13.71742
G1 X123.394 Y74.260 E14.38641
G1 X123.394 Y74.966 E14.43005
G1 X115.034 Y66.606 E15.16077
G1 X114.328 Y66.606 E15.20441
G1 X123.394 Y75.672 E15.99685
G1 X123.394 Y76.378 E16.04049
G1 X113.622 Y66.606 E16.89466
G1 X112.916 Y66.606 E16.93830
G1 X123.394 Y77.084 E17.85418
G1 X123.394 Y77.791 E17.89783
G1 X112.209 Y66.606 E18.87544
G1 X111.503 Y66.606 E18.91908
G1 X123.394 Y78.497 E19.95842
G1 X123.394 Y79.203 E20.00206
G1 X110.797 Y66.606 E21.10312
G1 X110.091 Y66.606 E21.14676
G1 X123.394 Y79.909 E22.30954
G1 X123.394 Y80.615 E22.35319
G1 X109.385 Y66.606 E23.57769
G1 X108.679 Y66.606 E23.62134
G1 X123.394 Y81.321 E24.90756
G1 X123.394 Y82.027 E24.95121
G1 X107.973 Y66.606 E26.29916
G1 X107.266 Y66.606 E26.34280
G1 X123.394 Y82.734 E27.75248
G1 X123.347 Y83.394 E27.79337
G1 X106.560 Y66.606 E29.26073
G1 X105.854 Y66.606 E29.30438
G1 X122.641 Y83.394 E30.77174
G1 X121.935 Y83.394 E30.81539
G1 X105.148 Y66.606 E32.28275
G1 X104.442 Y66.606 E32.32639
G1 X121.229 Y83.394 E33.79376
G1 X120.523 Y83.394 E33.83740
G1 X103.736 Y66.606 E35.30477
G1 X103.030 Y66.606 E35.34841
G1 X119.817 Y83.394 E36.81577
G1 X119.111 Y83.394 E36.85942
G1 X102.324 Y66.606 E38.32678
G1 X101.617 Y66.606 E38.37043
G1 X118.404 Y83.394 E39.83779
G1 X117.698 Y83.394 E39.88144
G1 X100.911 Y66.606 E41.34880
G1 X100.205 Y66.606 E41.39244
G1 X116.992 Y83.394 E42.85981
G1 X116.286 Y83.394 E42.90345
G1 X99.499 Y66.606 E44.37081
G1 X98.793 Y66.606 E44.41446
G1 X115.580 Y83.394 E45.88182
G1 X114.874 Y83.394 E45.92547
G1 X98.087 Y66.606 E47.39283
G1 X97.381 Y66.606 E47.43648
G1 X114.168 Y83.394 E48.90384
G1 X113.461 Y83.394 E48.94748
G1 X96.674 Y66.606 E50.41485
G1 X95.968 Y66.606 E50.45849
G1 X112.755 Y83.394 E51.92585
G1 X112.049 Y83.394 E51.96950
G1 X95.262 Y66.606 E53.43686
G1 X94.556 Y66.606 E53.48051
G1 X111.343 Y83.394 E54.94787
G1 X110.637 Y83.394 E54.99152
G1 X93.850 Y66.606 E56.45888
G1 X93.144 Y66.606 E56.50252
G1 X109.931 Y83.394 E57.96989
G1 X109.225 Y83.394 E58.01353
G1 X92.438 Y66.606 E59.48090
G1 X91.731 Y66.606 E59.52454
G1 X108.518 Y83.394 E60.99190
G1 X107.812 Y83.394 E61.03555
G1 X91.025 Y66.606 E62.50291
G1 X90.319 Y66.606 E62.54656
G1 X107.106 Y83.394 E64.01392
G1 X106.400 Y83.394 E64.05756
G1 X89.613 Y66.606 E65.52493
G1 X88.907 Y66.606 E65.56857
G1 X105.694 Y83.394 E67.03594
G1 X104.988 Y83.394 E67.07958
G1 X88.201 Y66.606 E68.54694
G1 X87.495 Y66.606 E68.59059
G1 X104.282 Y83.394 E70.05795
G1 X103.576 Y83.394 E70.10160
G1 X86.789 Y66.606 E71.56896
G1 X86.082 Y66.606 E71.61261
G1 X102.869 Y83.394 E73.07997
G1 X102.163 Y83.394 E73.12361
G1 X85.376 Y66.606 E74.59098
G1 X84.670 Y66.606 E74.63462
G1 X101.457 Y83.394 E76.10198
G1 X100.751 Y83.394 E76.14563
G1 X83.964 Y66.606 E77.61299
G1 X83.258 Y66.606 E77.65664
G1 X100.045 Y83.394 E79.12400
G1 X99.339 Y83.394 E79.16765
G1 X82.552 Y66.606 E80.63501
G1 X81.846 Y66.606 E80.67865
G1 X98.633 Y83.394 E82.14602
G1 X97.926 Y83.394 E82.18966
G1 X81.139 Y66.606 E83.65702
G1 X80.433 Y66.606 E83.70067
G1 X97.220 Y83.394 E85.16803
G1 X96.514 Y83.394 E85.21168
G1 X79.727 Y66.606 E86.67904
G1 X79.021 Y66.606 E86.72269
G1 X95.808 Y83.394 E88.19005
G1 X95.102 Y83.394 E88.23369
G1 X78.315 Y66.606 E89.70106
G1 X77.609 Y66.606 E89.74470
G1 X94.396 Y83.394 E91.21206
G1 X93.690 Y83.394 E91.25571
G1 X77.606 Y67.310 E92.66155
G1 X77.606 Y68.017 E92.70519
G1 X92.983 Y83.394 E94.04930
G1 X92.277 Y83.394 E94.09295
G1 X77.490 Y68.606 E95.38549
G1 X76.784 Y68.606 E95.42914
G1 X91.571 Y83.394 E96.72168
G1 X90.865 Y83.394 E96.76532
G1 X76.078 Y68.606 E98.05786
G1 X75.372 Y68.606 E98.10151
G1 X90.159 Y83.394 E99.39405
G1 X89.453 Y83.394 E99.43770
G1 X74.666 Y68.606 E100.73024
G1 X73.960 Y68.606 E100.77388
G1 X88.747 Y83.394 E102.06642
G1 X88.041 Y83.394 E102.11007
G1 X73.254 Y68.606 E103.40261
G1 X72.547 Y68.606 F7800.000
G1 X87.334 Y83.394 F1080.000 E104.69515
G1 X86.628 Y83.394 E104.73880
G1 X69.841 Y66.606 E106.20616
G1 X69.135 Y66.606 E106.24981
G1 X85.922 Y83.394 E107.71717
G1 X85.216 Y83.394 E107.76081
G1 X68.429 Y66.606 E109.22818
G1 X67.723 Y66.606 E109.27182
G1 X84.510 Y83.394 E110.73919
G1 X83.804 Y83.394 E110.78283
G1 X67.017 Y66.606 E112.25019
G1 X66.311 Y66.606 E112.29384
G1 X83.098 Y83.394 E113.76120
G1 X82.391 Y83.394 E113.80485
G1 X65.604 Y66.606 E115.27221
G1 X64.898 Y66.606 E115.31585
G1 X81.685 Y83.394 E116.78322
G1 X80.979 Y83.394 E116.82686
G1 X64.192 Y66.606 E118.29423
G1 X63.486 Y66.606 E118.33787
G1 X80.273 Y83.394 E119.80523
G1 X79.567 Y83.394 E119.84888
G1 X62.780 Y66.606 E121.31624
G1 X62.074 Y66.606 E121.35989
G1 X78.861 Y83.394 E122.82725
G1 X78.155 Y83.394 E122.87090
G1 X61.368 Y66.606 E124.33826
G1 X60.661 Y66.606 E124.38190
G1 X77.448 Y83.394 E125.84927
G1 X76.742 Y83.394 E125.89291
G1 X59.955 Y66.606 E127.36027
G1 X59.249 Y66.606 E127.40392
G1 X76.036 Y83.394 E128.87128
G1 X75.330 Y83.394 E128.91493
G1 X58.543 Y66.606 E130.38229
G1 X57.837 Y66.606 E130.42594
G1 X74.624 Y83.394 E131.89330
G1 X73.918 Y83.394 E131.93694
G1 X57.131 Y66.606 E133.40431
G1 X56.425 Y66.606 E133.44795
G1 X73.212 Y83.394 E134.91531
G1 X72.506 Y83.394 E134.95896
G1 X55.719 Y66.606 E136.42632
G1 X55.012 Y66.606 E136.46997
G1 X71.799 Y83.394 E137.93733
G1 X71.093 Y83.394 E137.98098
G1 X54.306 Y66.606 E139.44834
G1 X53.600 Y66.606 E139.49198
G1 X70.387 Y83.394 E140.95935
G1 X69.681 Y83.394 E141.00299
G1 X52.894 Y66.606 E142.47035
G1 X52.188 Y66.606 E142.51400
G1 X68.975 Y83.394 E143.98136
G1 X68.269 Y83.394 E144.02501
G1 X51.482 Y66.606 E145.49237
G1 X50.776 Y66.606 E145.53602
G1 X67.563 Y83.394 E147.00338
G1 X66.856 Y83.394 E147.04702
G1 X50.069 Y66.606 E148.51439
G1 X49.363 Y66.606 E148.55803
G1 X66.150 Y83.394 E150.02539
G1 X65.444 Y83.394 E150.06904
G1 X48.657 Y66.606 E151.53640
G1 X47.951 Y66.606 E151.58005
G1 X64.738 Y83.394 E153.04741
G1 X64.032 Y83.394 E153.09106
G1 X47.245 Y66.606 E154.55842
G1 X46.539 Y66.606 E154.60206
G1 X63.326 Y83.394 E156.06943
G1 X62.620 Y83.394 E156.11307
G1 X45.833 Y66.606 E157.58043
G1 X45.126 Y66.606 E157.62408
G1 X61.913 Y83.394 E159.09144
G1 X61.207 Y83.394 E159.13509
G1 X44.420 Y66.606 E160.60245
G1 X43.714 Y66.606 E160.64610
G1 X60.501 Y83.394 E162.11346
G1 X59.795 Y83.394 E162.15710
G1 X43.008 Y66.606 E163.62447
G1 X42.302 Y66.606 E163.66811
G1 X59.089 Y83.394 E165.13547
G1 X58.383 Y83.394 E165.17912
G1 X41.596 Y66.606 E166.64648
G1 X40.890 Y66.606 E166.69013
G1 X57.677 Y83.394 E168.15749
G1 X56.971 Y83.394 E168.20114
G1 X40.184 Y66.606 E169.66850
G1 X39.477 Y66.606 E169.71214
G1 X56.264 Y83.394 E171.17951
G1 X55.558 Y83.394 E171.22315
G1 X38.771 Y66.606 E172.69051
G1 X38.065 Y66.606 E172.73416
G1 X54.852 Y83.394 E174.20152
G1 X54.146 Y83.394 E174.24517
G1 X37.359 Y66.606 E175.71253
G1 X36.653 Y66.606 E175.75617
G1 X53.440 Y83.394 E177.22354
G1 X52.734 Y83.394 E177.26718
G1 X35.947 Y66.606 E178.73455
G1 X35.241 Y66.606 E178.77819
G1 X52.028 Y83.394 E180.24555
G1 X51.321 Y83.394 E180.28920
G1 X34.534 Y66.606 E181.75656
G1 X33.828 Y66.606 E181.80021
G1 X50.615 Y83.394 E183.26757
G1 X49.909 Y83.394 E183.31121
G1 X33.122 Y66.606 E184.77858
G1 X32.416 Y66.606 E184.82222
G1 X49.203 Y83.394 E186.28958
G1 X48.497 Y83.394 E186.33323
G1 X31.710 Y66.606 E187.80059
G1 X31.004 Y66.606 E187.84424
G1 X47.791 Y83.394 E189.31160
G1 X47.085 Y83.394 E189.35525
G1 X30.298 Y66.606 E190.82261
G1 X29.591 Y66.606 E190.86625
G1 X46.378 Y83.394 E192.33362
G1 X45.672 Y83.394 E192.37726
G1 X28.885 Y66.606 E193.84462
G1 X28.179 Y66.606 E193.88827
G1 X44.966 Y83.394 E195.35563
G1 X44.260 Y83.394 E195.39928
G1 X27.473 Y66.606 E196.86664
G1 X26.767 Y66.606 E196.91029
G1 X43.554 Y83.394 E198.37765
G1 X42.848 Y83.394 E198.42129
G1 X26.061 Y66.606 E199.88866
G1 X25.355 Y66.606 E199.93230
G1 X42.142 Y83.394 E201.39966
G1 X41.436 Y83.394 E201.44331
G1 X24.649 Y66.606 E202.91067
G1 X23.942 Y66.606 E202.95432
G1 X40.729 Y83.394 E204.42168
